packages/ui-icons/svg/Line/bullet-list-circle-outline.svg

<svg viewBox="0 0 1920 1920" version="1.1" xmlns="http://www.w3.org/2000/svg">
    <path d="M559.706 1575.941h1360v-120h-1360v120zm0-1121h1360v-120h-1360v120zm0 561h1360v-120h-1360v120zM169.5 565C75.888 565 0 489.112 0 395.5S75.888 226 169.5 226 339 301.888 339 395.5 263.112 565 169.5 565zm0-84c47.22 0 85.5-38.28 85.5-85.5S216.72 310 169.5 310 84 348.28 84 395.5s38.28 85.5 85.5 85.5zm0 1208C75.888 1689 0 1613.112 0 1519.5S75.888 1350 169.5 1350 339 1425.888 339 1519.5 263.112 1689 169.5 1689zm0-84c47.22 0 85.5-38.279 85.5-85.5s-38.28-85.5-85.5-85.5-85.5 38.279-85.5 85.5 38.28 85.5 85.5 85.5zm0-478C75.888 1127 0 1051.112 0 957.5S75.888 788 169.5 788 339 863.888 339 957.5 263.112 1127 169.5 1127zm0-84c47.22 0 85.5-38.279 85.5-85.5 0-47.22-38.28-85.5-85.5-85.5S84 910.28 84 957.5c0 47.221 38.28 85.5 85.5 85.5z" stroke="none" stroke-width="1" fill-rule="evenodd"/>
</svg>

<svg viewBox="0 0 1920 1920" version="1.1" xmlns="http://www.w3.org/2000/svg">
    <path d="M559.706,1575.941 L1919.706,1575.941 L1919.706,1455.941 L559.706,1455.941 L559.706,1575.941 Z M559.706,454.941 L1919.706,454.941 L1919.706,334.941 L559.706,334.941 L559.706,454.941 Z M559.706,1015.941 L1919.706,1015.941 L1919.706,895.941 L559.706,895.941 L559.706,1015.941 Z M169.5,565 C75.888,565 0,489.112 0,395.5 C0,301.888 75.888,226 169.5,226 C263.112,226 339,301.888 339,395.5 C339,489.112 263.112,565 169.5,565 L169.5,565 Z M169.5,481 C216.72,481 255,442.72 255,395.5 C255,348.28 216.72,310 169.5,310 C122.28,310 84,348.28 84,395.5 C84,442.72 122.28,481 169.5,481 L169.5,481 Z M169.5,1689 C75.888,1689 0,1613.112 0,1519.5 C0,1425.888 75.888,1350 169.5,1350 C263.112,1350 339,1425.888 339,1519.5 C339,1613.112 263.112,1689 169.5,1689 L169.5,1689 Z M169.5,1605 C216.72,1605 255,1566.721 255,1519.5 C255,1472.279 216.72,1434 169.5,1434 C122.28,1434 84,1472.279 84,1519.5 C84,1566.721 122.28,1605 169.5,1605 L169.5,1605 Z M169.5,1127 C75.888,1127 0,1051.112 0,957.5 C0,863.888 75.888,788 169.5,788 C263.112,788 339,863.888 339,957.5 C339,1051.112 263.112,1127 169.5,1127 L169.5,1127 Z M169.5,1043 C216.72,1043 255,1004.721 255,957.5 C255,910.28 216.72,872 169.5,872 C122.28,872 84,910.28 84,957.5 C84,1004.721 122.28,1043 169.5,1043 L169.5,1043 Z" stroke="none" stroke-width="1" fill-rule="evenodd"/>
</svg>
